X:118
T:Anglais efter fadern
T:(SvL Halland 118)
O:Lindome, Halland
R:Anglais
S:Albert Drakenberg
B:Svenska Låtar Halland
M:2/4
L:1/16
K:D
(D2|G2)BB DD[FA][FA]|[DF][DF]GG F2D2|f2ff Acee|dddd c2A2|
G2BB DD[FA][FA]|[DF][DF]GG F2D2|f2ff Acee|1 d2d2 d2:|2 d2d2 d4|]
a2a2 gfga|b2b2 g2g2|efed cBA2|fgfe dcd2|
a2a2 gfga|b2b2 g2g2|\
M:3/4
efed c2BA A2Bc|\
M:2/4
[1 c2d2 d4:|[2c2d2 d2 |]

